Numix/16/status/indicator-keyboard-Gr-1.svg

<?xml version="1.0" encoding="UTF-8" standalone="no"?>
<svg
   xmlns:dc="http://purl.org/dc/elements/1.1/"
   xmlns:cc="http://creativecommons.org/ns#"
   xmlns:rdf="http://www.w3.org/1999/02/22-rdf-syntax-ns#"
   xmlns:svg="http://www.w3.org/2000/svg"
   xmlns="http://www.w3.org/2000/svg"
   xmlns:sodipodi="http://sodipodi.sourceforge.net/DTD/sodipodi-0.dtd"
   xmlns:inkscape="http://www.inkscape.org/namespaces/inkscape"
   viewBox="0 0 16 16"
   id="svg2"
   version="1.1"
   inkscape:version="0.91 r13725"
   sodipodi:docname="indicator-keyboard-Gr-1.svg">
  <metadata
     id="metadata14">
    <rdf:RDF>
      <cc:Work
         rdf:about="">
        <dc:format>image/svg+xml</dc:format>
        <dc:type
           rdf:resource="http://purl.org/dc/dcmitype/StillImage" />
      </cc:Work>
    </rdf:RDF>
  </metadata>
  <defs
     id="defs12" />
  <sodipodi:namedview
     pagecolor="#ffffff"
     bordercolor="#666666"
     borderopacity="1"
     objecttolerance="10"
     gridtolerance="10"
     guidetolerance="10"
     inkscape:pageopacity="0"
     inkscape:pageshadow="2"
     inkscape:window-width="640"
     inkscape:window-height="480"
     id="namedview10"
     showgrid="false"
     inkscape:zoom="14.75"
     inkscape:cx="8"
     inkscape:cy="8"
     inkscape:window-x="65"
     inkscape:window-y="24"
     inkscape:window-maximized="0"
     inkscape:current-layer="svg2" />
  <path
     style="fill:#ececec;fill-opacity:1"
     d="M 1.5996094 0 C 0.71320937 2.9605947e-16 0 0.71320937 0 1.5996094 L 0 14.400391 C 2.9605947e-16 15.286791 0.71320937 16 1.5996094 16 L 14.400391 16 C 15.286791 16 16 15.286791 16 14.400391 L 16 1.5996094 C 16 0.71320937 15.286791 0 14.400391 0 L 1.5996094 0 z M 5.5390625 4.7246094 C 6.0010625 4.7246094 6.3835937 4.7749531 6.6835938 4.8769531 C 6.9835937 4.9729531 7.2018438 5.06625 7.3398438 5.15625 L 7.1328125 5.6777344 C 6.9648125 5.5577344 6.7372187 5.462625 6.4492188 5.390625 C 6.1612188 5.312625 5.8496719 5.2734375 5.5136719 5.2734375 C 5.2016719 5.2734375 4.9068594 5.3293594 4.6308594 5.4433594 C 4.3548594 5.5573594 4.1141562 5.7290313 3.9101562 5.9570312 C 3.7061563 6.1850312 3.5457813 6.4667344 3.4257812 6.8027344 C 3.3117813 7.1387344 3.2539062 7.5286563 3.2539062 7.9726562 C 3.2539062 8.3866563 3.3024375 8.7616563 3.3984375 9.0976562 C 3.4944375 9.4276563 3.6380781 9.713125 3.8300781 9.953125 C 4.0280781 10.187125 4.2705938 10.366188 4.5585938 10.492188 C 4.8465938 10.618187 5.1805938 10.681641 5.5585938 10.681641 C 5.8645937 10.681641 6.1182656 10.666719 6.3222656 10.636719 C 6.5322656 10.600719 6.6740938 10.567109 6.7460938 10.537109 L 6.7460938 8.1445312 L 7.3574219 8.1445312 L 7.3574219 10.925781 C 7.2434219 10.973781 7.0195937 11.033469 6.6835938 11.105469 C 6.3535937 11.183469 5.9449844 11.222656 5.4589844 11.222656 C 5.0509844 11.222656 4.6722187 11.149859 4.3242188 11.005859 C 3.9762188 10.861859 3.6740156 10.654766 3.4160156 10.384766 C 3.1640156 10.108765 2.9662656 9.7691875 2.8222656 9.3671875 C 2.6782656 8.9591875 2.6054688 8.4946563 2.6054688 7.9726562 C 2.6054688 7.4506563 2.6838437 6.9898906 2.8398438 6.5878906 C 2.9958438 6.1798906 3.2067031 5.8403125 3.4707031 5.5703125 C 3.7407031 5.2943125 4.05225 5.0834531 4.40625 4.9394531 C 4.76025 4.7954531 5.1370625 4.7246094 5.5390625 4.7246094 z M 10.330078 6.3535156 C 10.522078 6.3535156 10.701141 6.3684375 10.869141 6.3984375 C 11.043141 6.4284375 11.164469 6.4582812 11.230469 6.4882812 L 11.113281 6.9921875 C 11.065281 6.9681875 10.966406 6.9439219 10.816406 6.9199219 C 10.672406 6.8899219 10.480234 6.875 10.240234 6.875 C 9.9882346 6.875 9.7829531 6.8936875 9.6269531 6.9296875 C 9.4769531 6.9656875 9.3780781 6.9955312 9.3300781 7.0195312 L 9.3300781 11.095703 L 8.7460938 11.095703 L 8.7460938 6.6582031 C 8.8960937 6.5922031 9.1031875 6.5269375 9.3671875 6.4609375 C 9.6311875 6.3889375 9.9520783 6.3535156 10.330078 6.3535156 z M 13.125 8.8417969 L 13.394531 8.8417969 L 13.394531 12.896484 L 13.013672 12.896484 L 13.013672 9.421875 C 12.970772 9.468675 12.91395 9.5157063 12.84375 9.5664062 C 12.77745 9.6171063 12.701034 9.66805 12.615234 9.71875 C 12.529434 9.76555 12.441256 9.812575 12.347656 9.859375 C 12.254056 9.902275 12.160006 9.9375437 12.066406 9.9648438 L 11.955078 9.671875 C 12.189078 9.5899751 12.396778 9.4880813 12.580078 9.3632812 C 12.763378 9.2345813 12.9456 9.0601969 13.125 8.8417969 z "
     id="path4" />
</svg>

<svg xmlns="http://www.w3.org/2000/svg" viewBox="0 0 16 16">
 <path d="m 1.6 0 c -0.886 0 -1.6 0.713 -1.6 1.6 l 0 12.801 c 0 0.886 0.713 1.6 1.6 1.6 l 12.801 0 c 0.886 0 1.6 -0.713 1.6 -1.6 l 0 -12.801 c 0 -0.886 -0.713 -1.6 -1.6 -1.6 l -12.801 0 z m 3.939 4.725 c 0.462 0 0.845 0.05 1.145 0.152 c 0.3 0.096 0.518 0.189 0.656 0.279 l -0.207 0.521 c -0.168 -0.12 -0.396 -0.215 -0.684 -0.287 c -0.288 -0.078 -0.6 -0.117 -0.936 -0.117 c -0.312 0 -0.607 0.056 -0.883 0.17 c -0.276 0.114 -0.517 0.286 -0.721 0.514 c -0.204 0.228 -0.364 0.51 -0.484 0.846 c -0.114 0.336 -0.172 0.726 -0.172 1.17 c 0 0.414 0.049 0.789 0.145 1.125 c 0.096 0.33 0.24 0.615 0.432 0.855 c 0.198 0.234 0.441 0.413 0.729 0.539 c 0.288 0.126 0.622 0.189 1 0.189 c 0.306 0 0.56 -0.015 0.764 -0.045 c 0.21 -0.036 0.352 -0.07 0.424 -0.1 l 0 -2.393 l 0.611 0 l 0 2.781 c -0.114 0.048 -0.338 0.108 -0.674 0.18 c -0.33 0.078 -0.739 0.117 -1.225 0.117 c -0.408 0 -0.787 -0.073 -1.135 -0.217 c -0.348 -0.144 -0.65 -0.351 -0.908 -0.621 c -0.252 -0.276 -0.45 -0.616 -0.594 -1.018 c -0.144 -0.408 -0.217 -0.873 -0.217 -1.395 c 0 -0.522 0.078 -0.983 0.234 -1.385 c 0.156 -0.408 0.367 -0.748 0.631 -1.018 c 0.27 -0.276 0.582 -0.487 0.936 -0.631 c 0.354 -0.144 0.731 -0.215 1.133 -0.215 z m 4.791 1.629 c 0.192 0 0.371 0.015 0.539 0.045 c 0.174 0.03 0.295 0.06 0.361 0.09 l -0.117 0.504 c -0.048 -0.024 -0.147 -0.048 -0.297 -0.072 c -0.144 -0.03 -0.336 -0.045 -0.576 -0.045 c -0.252 0 -0.457 0.019 -0.613 0.055 c -0.15 0.036 -0.249 0.066 -0.297 0.09 l 0 4.076 l -0.584 0 l 0 -4.437 c 0.15 -0.066 0.357 -0.131 0.621 -0.197 c 0.264 -0.072 0.585 -0.107 0.963 -0.107 z m 2.795 2.488 l 0.27 0 l 0 4.055 l -0.381 0 l 0 -3.475 c -0.043 0.047 -0.1 0.094 -0.17 0.145 c -0.066 0.051 -0.143 0.102 -0.229 0.152 c -0.086 0.047 -0.174 0.094 -0.268 0.141 c -0.094 0.043 -0.188 0.078 -0.281 0.105 l -0.111 -0.293 c 0.234 -0.082 0.442 -0.184 0.625 -0.309 c 0.183 -0.129 0.366 -0.303 0.545 -0.521 z" style="fill:#ececec;fill-opacity:1"/>
</svg>
